assets/imgs/list_8.svg

<svg width="30" height="30" viewBox="0 0 30 30" fill="none" xmlns="http://www.w3.org/2000/svg">
<path d="M5.19701 17.2938L4.58307 16.5044L5.19701 17.2938C5.80598 16.8202 6.16216 16.0919 6.16216 15.3204V14.6796C6.16216 13.9081 5.80598 13.1798 5.19702 12.7062L3.65396 11.506C3.45566 11.3518 3.40259 11.0744 3.52996 10.8578L5.94047 6.75997C5.96256 6.72242 5.98147 6.70454 5.9913 6.69697C5.99416 6.69771 5.99776 6.69878 6.00214 6.70031C6.65673 6.93023 7.5754 7.28422 8.23068 7.54076C9.03824 7.85692 9.95479 7.73662 10.6528 7.21309L10.9132 7.01775C11.4174 6.63962 11.7601 6.08504 11.8729 5.465L12.2464 3.41056C12.2896 3.17281 12.4967 3 12.7383 3H17.2616C17.5042 3 17.7082 3.17276 17.7495 3.40639C17.8672 4.07099 18.0067 4.87259 18.1043 5.47593L19.0915 5.31623L18.1043 5.47594C18.2409 6.32032 18.7757 7.11398 19.583 7.51763C20.2142 7.83325 20.9471 7.86372 21.6009 7.60682C22.2566 7.34918 23.2837 6.95117 23.9979 6.70035C24.0022 6.69881 24.0058 6.69775 24.0087 6.69701C24.0185 6.70458 24.0374 6.72246 24.0595 6.76001L26.4354 10.7989C26.5676 11.0238 26.5048 11.3125 26.2911 11.4621L24.5528 12.6789C23.8845 13.1467 23.4865 13.9112 23.4865 14.7269V14.9818C23.4865 15.7412 23.8317 16.4595 24.4247 16.934L26.3606 18.4826C26.5547 18.6379 26.6053 18.9123 26.4792 19.1266L24.2573 22.9039C24.1351 23.1116 23.882 23.2026 23.6554 23.1203L21.5697 22.3618C20.9246 22.1272 20.2113 22.1682 19.5973 22.4752L19.4522 22.5478L19.8994 23.4422L19.4522 22.5478C18.7368 22.9055 18.2357 23.5839 18.1042 24.3729L17.736 26.5822C17.6958 26.8233 17.4872 27 17.2428 27H12.7572C12.5128 27 12.3042 26.8233 12.264 26.5822L11.8958 24.3728C11.7643 23.5839 11.2632 22.9054 10.5478 22.5477L10.4026 22.4752C9.78865 22.1682 9.07544 22.1272 8.43031 22.3618L6.34456 23.1202C6.11802 23.2026 5.86495 23.1116 5.74273 22.9038L3.52996 19.1421C3.40259 18.9256 3.45566 18.6482 3.65396 18.4939L5.19701 17.2938Z" fill="white" stroke="#4B4B4B" stroke-width="2"/>
<ellipse cx="14.9999" cy="14.9998" rx="2.78571" ry="2.81918" fill="#FDF5EF" stroke="#4B4B4B" stroke-width="2"/>
</svg>

<svg width="30" height="30" fill="none" xmlns="http://www.w3.org/2000/svg"><path d="m5.197 17.294-.614-.79.614.79a2.5 2.5 0 0 0 .965-1.974v-.64a2.5 2.5 0 0 0-.965-1.974l-1.543-1.2a.5.5 0 0 1-.124-.648L5.94 6.76a.218.218 0 0 1 .051-.063l.011.003c.655.23 1.573.584 2.229.84a2.51 2.51 0 0 0 2.422-.327l.26-.195a2.5 2.5 0 0 0 .96-1.553l.373-2.054A.5.5 0 0 1 12.738 3h4.524c.242 0 .446.173.488.406.117.665.257 1.467.354 2.07l.988-.16-.988.16c.137.844.672 1.638 1.479 2.042a2.481 2.481 0 0 0 2.018.089 80.849 80.849 0 0 1 2.408-.91c.01.008.028.025.05.063l2.376 4.039a.5.5 0 0 1-.144.663l-1.738 1.217a2.5 2.5 0 0 0-1.067 2.048v.255a2.5 2.5 0 0 0 .939 1.952l1.936 1.549a.5.5 0 0 1 .118.644l-2.222 3.777a.5.5 0 0 1-.602.216l-2.085-.758a2.5 2.5 0 0 0-1.973.113l-.145.073.447.894-.447-.894a2.5 2.5 0 0 0-1.348 1.825l-.368 2.21a.5.5 0 0 1-.493.417h-4.486a.5.5 0 0 1-.493-.418l-.368-2.21a2.5 2.5 0 0 0-1.348-1.824l-.145-.073a2.5 2.5 0 0 0-1.973-.113l-2.085.758a.5.5 0 0 1-.602-.216L3.53 19.142a.5.5 0 0 1 .124-.648l1.543-1.2z" fill="#fff" stroke="#4B4B4B" stroke-width="2"/><ellipse cx="15" cy="15" rx="2.786" ry="2.819" fill="#FDF5EF" stroke="#4B4B4B" stroke-width="2"/></svg>
